newicons/emoji_ballot_box_with_ballot.svg

<?xml version="1.0" encoding="UTF-8" standalone="no"?>
<svg
   version="1.2"
   viewBox="0 0 48 48"
   id="svg4"
   xmlns="http://www.w3.org/2000/svg"
   xmlns:svg="http://www.w3.org/2000/svg">
  <defs
     id="defs1" />
  <path
     d="M 6.3093466,42.5 V 22.018449 h 9.2585024"
     fill="none"
     stroke="#ffffff"
     stroke-linecap="round"
     stroke-linejoin="round"
     stroke-width="1"
     id="path1" />
  <path
     d="M 29.274702,22.018449 H 41.690653 V 42.5"
     fill="none"
     stroke="#ffffff"
     stroke-linecap="round"
     stroke-linejoin="round"
     stroke-width="1"
     id="path2" />
  <path
     d="M 24.867465,25.9487 15.641866,22.166477 22.474735,5.4999846 33.912197,10.186653 27.49866,25.825367"
     fill="none"
     stroke="#ffffff"
     stroke-linecap="round"
     stroke-linejoin="round"
     stroke-width="1"
     id="path3" />
  <path
     d="M 14.364918,26.002398 H 33.648762"
     fill="none"
     stroke="#ffffff"
     stroke-linecap="round"
     stroke-linejoin="round"
     stroke-width="1"
     id="path4" />
  <path
     style="fill:none;stroke:#ffffff;stroke-width:1;stroke-linecap:round;stroke-linejoin:round;stroke-dashoffset:0.5"
     d="M 41.690652,42.5 H 6.3093466"
     id="path5" />
</svg>

<?xml version="1.0" encoding="UTF-8"?><svg id="a" xmlns="http://www.w3.org/2000/svg" viewBox="0 0 48 48"><defs><style>.g{fill:none;stroke:#fff;stroke-linecap:round;stroke-linejoin:round;}</style></defs><path id="b" class="g" d="M6.3093,42.5v-20.4816h9.2585"/><path id="c" class="g" d="M29.2747,22.0185h12.416v20.4816"/><path id="d" class="g" d="M24.8675,25.9487l-9.2256-3.7822,6.8329-16.6665,11.4375,4.6867-6.4135,15.6387"/><path id="e" class="g" d="M14.3649,26.0024h19.2838"/><path id="f" class="g" d="M41.6907,42.5H6.3093"/></svg>
